X: 1
M: 4/4
L: 1/4
%%score {RH | LH}
V: RH clef=treble
V: LH clef=bass
K: C
V: LH
%%pos ornament below
%
[V: RH] !3!E E/E/ !4!F !5!G | !3!E2 !2!D2 | !1!C C/C/ !2!D !3!E | !3!E2 z2  |
[V: LH] z4                  | z4          | z4                  | z2 !2!B,2 |
%
[V: RH] z !3!E !2!D2  | z !3!E !2!D2  | z !3!E !2!D > !1!C | !1!C4 |]
[V: LH] !3!A, z z2    | !3!A, z z2    | !3!A, z z2         | z4    |]
